!!!COM: Mozart
!!!OTL: 12 Variations on "Ah Vous dirais-je, Maman" for the Piano
!!!Variation: 4 a2
**function	**harm	**kern	**kern
*	*	*clefF4	*clefG2
*	*	*k[]	*k[]
*M2/4	*M2/4	*M2/4	*M2/4
*C:	*C:	*C:	*C:
=113	=113	=113	=113
2T	I	12CCL	4e 4g 4cc
.	.	12EE	.
.	.	12GGJ	.
.	.	12CL	4cc
.	.	12E	.
.	.	12CJ	.
=114	=114	=114	=114
2T	I	12CCL	4cc 4ee 4gg
.	.	12EE	.
.	.	12GGJ	.
.	.	12CL	4gg
.	.	12E	.
.	.	12CJ	.
=115	=115	=115	=115
*	*	*	*^
2T	IVc	12CCL	(4gg	2cc 2aa
.	.	12FF	.	.
.	.	12AAJ	.	.
.	.	12CL	4ff)	.
.	.	12F	.	.
.	.	12CJ	.	.
=116	=116	=116	=116	=116
2T	I	12CCL	(4ff	2cc 2gg
.	.	12EE	.	.
.	.	12GGJ	.	.
.	.	12CL	4ee)	.
.	.	12E	.	.
.	.	12CJ	.	.
=117	=117	=117	=117	=117
4T	IV7b	12AAA'L	4cc	4ee 4ff
.	.	(12GG#	.	.
.	.	12AAJ)	.	.
4T	V7b	12BBB'L	4g	4dd 4ff
.	.	(12AA#	.	.
.	.	12BBJ)	.	.
=118	=118	=118	=118	=118
4T	I	12CC'L	4g	4dd 4ee
.	.	(12BB	.	.
.	.	12CJ)	.	.
4T	vi	12AAA'L	4a	4cc 4ee
.	.	(12GG#	.	.
.	.	12AAJ)	.	.
=119	=119	=119	=119	=119
4P	iib	12FFF'L	4a	4cc 4dd
.	.	(12EE	.	.
.	.	12FFJ)	.	.
4D	V7	12GGG'L	4f	4b 4dd
.	.	(12FF#	.	.
.	.	12GGJ)	.	.
=120	=120	=120	=120	=120
2T	I	12CCL	4e	4g 4cc
.	.	12EE	.	.
.	.	12GGJ	.	.
*	*	*	*v	*v
.	.	4C	4r
*-	*-	*-	*-
